Origami/32x32/apps/blobby.svg

<svg width="32" height="32" version="1" xmlns="http://www.w3.org/2000/svg">
 <circle cx="16" cy="17" r="14" style="opacity:.2"/>
 <circle cx="16" cy="16" r="14" style="fill:#cccccc"/>
 <path d="m14.224609 3.1152344c-0.423964 0.053203-0.838925 0.1287744-1.25 0.21875-0.599071 4.1353792 0.100967 8.5691916 2.335938 12.464844-1.148 1.829424-2.525613 3.544934-4.132813 4.802734-3.3231513-4.302919-4.5018287-9.670169-3.755859-14.664062-0.4705197 0.3648567-0.9260397 0.7489226-1.3457031 1.1699219-0.4141426 4.9623301 0.9745838 10.000161 4.0703121 14.294922-1.6961097 1.192504-3.5729893 2.104771-5.5410152 2.703125a14 14 0 0 0 0.7597656 0.974609c4.434561-1.493743 8.4088536-4.443273 10.978516-8.708984 2.181229 2e-6 4.362823 0.456522 6.314453 1.142578-2.402195 5.617538-7.088064 9.61484-12.582031 11.152344a14 14 0 0 0 1.785156 0.708984 14 14 0 0 0 0.001953 0c5.180176-1.933843 9.565652-5.962645 11.828125-11.289062 1.929211 0.910235 3.664433 2.100519 5.154297 3.46875a14 14 0 0 0 0.492188 -1.316407c-3.488277-3.028783-7.977617-4.901118-12.994141-5.009765-1.148001-1.943797-1.835258-4.002378-2.179688-6.0605472 0.760548-0.085757 1.514402-0.129073 2.261719-0.1308594 5.024986-0.012012 9.692315 1.8374606 13.257813 4.9980466-0.149763-0.699559-0.361854-1.373365-0.611328-2.029297-4.180043-3.1836005-9.4928-4.7536633-15.023438-3.9824215-0.10707-1.6000271-0.103344-3.2947917 0.175781-4.9082031z" style="opacity:.2"/>
 <path d="m14.225391 2.1148437c-0.423964 0.053203-0.839902 0.1287744-1.250977 0.21875-0.599071 4.1353792 0.101552 8.5703633 2.336523 12.466015-1.148 1.829424-2.525807 3.543763-4.133007 4.801563-3.3231517-4.302919-4.503001-9.6691934-3.7570313-14.663086-0.4705197 0.3648567-0.9242821 0.7493132-1.3439455 1.1703125-0.4141426 4.9623306 0.9730211 9.9991836 4.0687498 14.293945-1.8568519 1.305519-3.9238532 2.294794-6.0976562 2.880665 0.2135083 0.350647 0.4409775 0.690595 0.6835939 1.019922 4.6909507-1.416996 8.9203663-4.462169 11.612891-8.931837 2.181229 2e-6 4.362041 0.456913 6.313671 1.142969-2.590238 6.057277-7.834228 10.235805-13.885156 11.472071 0.5350247 0.322332 1.0875788 0.618514 1.6666023 0.868164 5.794887-1.686901 10.784766-5.958561 13.252148-11.767383 2.052798 0.968546 3.896607 2.244675 5.446875 3.725586 0.164912-0.452439 0.30684-0.914514 0.425195-1.387695-3.518317-3.142661-8.096847-5.085738-13.219335-5.19668-1.148001-1.943797-1.836235-4.002573-2.180665-6.0607421 0.760547-0.085757 1.515378-0.1280965 2.262695-0.1298829 5.024986-0.012012 9.690752 1.8378514 13.25625 4.998437-0.149763-0.699559-0.360291-1.374341-0.609765-2.030273-4.180043-3.1836009-9.493385-4.752492-15.024023-3.9812502-0.10707-1.6000271-0.102758-3.2961587 0.176367-4.9095701z" style="fill:#4f4f4f"/>
 <path d="M 16 2 A 14 14 0 0 0 2 16 A 14 14 0 0 0 2.0214844 16.585938 A 14 14 0 0 1 16 3 A 14 14 0 0 1 29.978516 16.414062 A 14 14 0 0 0 30 16 A 14 14 0 0 0 16 2 z" style="fill:#ffffff;opacity:.2"/>
</svg>

<svg xmlns="http://www.w3.org/2000/svg" width="32" height="32" version="1">
 <circle style="opacity:0.2" cx="16" cy="17" r="14"/>
 <circle style="fill:#cccccc" cx="16" cy="16" r="14"/>
 <path style="opacity:0.2" d="M 14.224609 3.1152344 C 13.800645 3.1684374 13.385684 3.2440088 12.974609 3.3339844 C 12.375538 7.4693636 13.075576 11.903176 15.310547 15.798828 C 14.162547 17.628252 12.784934 19.343762 11.177734 20.601562 C 7.8545827 16.298643 6.6759053 10.931393 7.421875 5.9375 C 6.9513553 6.3023567 6.4958353 6.6864226 6.0761719 7.1074219 C 5.6620293 12.069752 7.0507557 17.107583 10.146484 21.402344 C 8.4503743 22.594848 6.5734947 23.507115 4.6054688 24.105469 A 14 14 0 0 0 5.3652344 25.080078 C 9.7997954 23.586335 13.774088 20.636805 16.34375 16.371094 C 18.524979 16.371096 20.706573 16.827616 22.658203 17.513672 C 20.256008 23.13121 15.570139 27.128512 10.076172 28.666016 A 14 14 0 0 0 11.861328 29.375 A 14 14 0 0 0 11.863281 29.375 C 17.043457 27.441157 21.428933 23.412355 23.691406 18.085938 C 25.620617 18.996173 27.355839 20.186457 28.845703 21.554688 A 14 14 0 0 0 29.337891 20.238281 C 25.849614 17.209498 21.360274 15.337163 16.34375 15.228516 C 15.195749 13.284719 14.508492 11.226138 14.164062 9.1679688 C 14.92461 9.0822118 15.678464 9.0388958 16.425781 9.0371094 C 21.450767 9.0250974 26.118096 10.87457 29.683594 14.035156 C 29.533831 13.335597 29.32174 12.661791 29.072266 12.005859 C 24.892223 8.8222585 19.579466 7.2521957 14.048828 8.0234375 C 13.941758 6.4234104 13.945484 4.7286458 14.224609 3.1152344 z"/>
 <path style="fill:#4f4f4f" d="m 14.225391,2.1148437 c -0.423964,0.053203 -0.839902,0.1287744 -1.250977,0.21875 -0.599071,4.1353792 0.101552,8.5703633 2.336523,12.4660153 -1.148,1.829424 -2.525807,3.543763 -4.133007,4.801563 C 7.8547783,15.298253 6.674929,9.9319786 7.4208987,4.9380859 6.950379,5.3029426 6.4966166,5.6873991 6.0769532,6.1083984 5.6628106,11.070729 7.0499743,16.107582 10.145703,20.402343 c -1.8568519,1.305519 -3.9238532,2.294794 -6.0976562,2.880665 0.2135083,0.350647 0.4409775,0.690595 0.6835939,1.019922 4.6909507,-1.416996 8.9203663,-4.462169 11.6128913,-8.931837 2.181229,2e-6 4.362041,0.456913 6.313671,1.142969 -2.590238,6.057277 -7.834228,10.235805 -13.8851563,11.472071 0.5350247,0.322332 1.0875788,0.618514 1.6666023,0.868164 5.794887,-1.686901 10.784766,-5.958561 13.252148,-11.767383 2.052798,0.968546 3.896607,2.244675 5.446875,3.725586 0.164912,-0.452439 0.30684,-0.914514 0.425195,-1.387695 C 26.04555,16.282144 21.46702,14.339067 16.344532,14.228125 15.196531,12.284328 14.508297,10.225552 14.163867,8.1673829 14.924414,8.0816259 15.679245,8.0392864 16.426562,8.0375 21.451548,8.025488 26.117314,9.8753514 29.682812,13.035937 29.533049,12.336378 29.322521,11.661596 29.073047,11.005664 24.893004,7.8220631 19.579662,6.253172 14.049024,7.0244138 13.941954,5.4243867 13.946266,3.7282551 14.225391,2.1148437 Z"/>
 <path style="opacity:0.2;fill:#ffffff" d="M 16 2 A 14 14 0 0 0 2 16 A 14 14 0 0 0 2.0214844 16.585938 A 14 14 0 0 1 16 3 A 14 14 0 0 1 29.978516 16.414062 A 14 14 0 0 0 30 16 A 14 14 0 0 0 16 2 z"/>
</svg>
